X:1
T:Title
%%score ( 1 2 ) ( 3 4 )
L:1/8
Q:1/4=99
M:6/8
K:Eb
V:1 treble nm="Grand Piano, Soprano"
V:2 treble 
V:3 bass nm="Choir Pad, Bass"
V:4 bass 
V:1
 [GB]2 [Ac] [GB]2 [FA] | [EG]2 [DF] E3 | [DF][DF][DF] [DF][CE][DF] | E3 .B3 | %4
w: By~Barney~Elliott~Warren * * *||||
 [GB]2 [Ac] [GB]2 [FA] | [EG]2 [DF] E3 | [EG][EG][EG] [DF][DF][DF] | E6 | [Ac]3 [EA]2 [Ac] | %9
w: |||||
 [GB]3 .[EG]3 | [DF][DF][DF] [DB]2 [FA] | [EG]3 .[GB]3 | [Ac]3 [EA]2 [Ac] | [GB]3 .[EG]3 | %14
w: |||||
 [DF][DF][DF] [DB]D[DF] | EB,C B,3- | B,6 |] %17
w: |||
V:2
 x6 | x6 | x6 | G6 | x6 | x6 | x6 | x6 | x6 | x6 | x6 | x6 | x6 | x6 | x6 | x6 | x6 |] %17
V:3
 [E,E]2 [E,E] [E,E]2 [E,B,] | [E,B,]2 [E,A,] [E,G,]3 | %2
 [B,,A,][B,,A,][B,,A,] [B,,A,][B,,A,][B,,A,] | B,3 z3 | [E,E]2 [E,E] [E,E]2 [E,B,] | %5
 [E,B,]2 [E,A,] [E,G,]3 | [B,,B,][B,,B,][B,,B,] [B,,B,][B,,B,][B,,B,] | [E,G,]6 | %8
 [A,E][A,E][A,E] [A,C][A,C][A,E] | [E,E]2 [E,B,] .[E,B,]3 | [B,,B,][B,,B,][B,,B,] [B,,B,]2 [D,B,] | %11
 [E,B,]3 .[E,E]3 | [A,E][A,E][A,E] [A,C][A,C][A,F] | [E,E]2 [E,B,] .[E,B,]3 | %14
 [B,,B,][B,,B,][B,,B,] [B,,A,][B,,A,][B,,A,] | .G,3 z3 | z6 |] %17
V:4
 x6 | x6 | x6 | E,3- [E,E]3 | x6 | x6 | x6 | x6 | x6 | x6 | x6 | x6 | x6 | x6 | x6 | %15
 E,-[E,-G,][E,A,] [E,G,]3- | [E,G,]6 |] %17

